X:2040
T:Guds menighet, syng for v\aar skaper i l\onn
C:Erik Hoff, words: Nikolai Frederik Severin Grundtvig
O:Norway
B:Hoff: "Melodibog til samtlige author. Salmeb\oger" (1878)
R:Hymn
Z:Transcribed by Frank Nordberg - http://www.musicaviva.com
F:http://abc.musicaviva.com/tunes/hoff-erik/hoff-guds-menighet.abc
V:1 Program 1 19 up %Church organ
V:2 Program 1 19 merge down %Church organ
V:3 Program 1 19 bass up %Church organ
V:4 Program 1 19 bass merge down %Church organ
M:C
L:1/2
Q:1/2=88
K:G
V:1
D|DE/F/|GF/G/|BA/F/|G2|
V:2
B,|B,C|DC/B,/|D>C|B,2|
V:3
G,|G,G,/A,/|G,A,/G,/|G,F,/A,/|G,2|
V:4
G,|G,,C,/A,,/|B,,D,/E,/|D,D,|G,,2|
%
V:1
F/A/G/E/|DA|AE/F/|GA/B/|cB/G/|
V:2
DE/^C/|DD|^CB,|B,D|DD|
V:3
A,B,/G,/|F,D,|E,>^D,|E,D,/G,/|F,G,|
V:4
D,,/F,,/G,,/A,,/|D,,F,,|A,,G,,/F,,/|E,,F,,/G,,/|A,,G,,/B,,/|
%
V:1
AG|FE/E/|DG/B/|AG-|G|]
V:2
DB,|D>C-|C/B,/B,/D/|CB,-|B,|] 
V:3
F,G,|B,G,/A,/|F,/G,/G,|F,G,-|G,|] 
V:4
D,E,|B,,C,/A,,/|D,/G,/E,/B,,/|D,G,,-|G,,|]
W:
W:Guds menighet syng for v\aar skaper i l\onn!
W:  Engler synger med.
W:Han gav oss til Frelser sin enb\aarne s\onn.
W:  S\aa liflig vi leker for Herren.
W:
W:Sl\aa harpen, du fromme salmist p\aa jord
W:  Strengen er av gull.
W:For Jesus, v\aar konge, Guds levende ord,
W:  S\aa liflig vi leker for Herren.
W:
W:Da h\ores de gl\odende tungers r\ost
W:  \AAnden er oss n\aer.
W:Som bringer oss alltid den evige tr\ost.
W:  S\aa liflig vi leker for Herren.
W:
W:
W:  From Musica Viva - http://www.musicaviva.com
W:  the Internet center for free sheet music downloads.
